!!!COM:	Martini, Johannes
!!!CDT:	~1440///-~1497//
!!!OPR:	Missa Cucu
!!!ONM:	5
!!!OTL:	Agnus Dei
!!!AGN:	Mass; Agnus Dei
!!!SCT:	Mar1003e
!!!SCA:	Mar1003e
!!!voices:	4
!!!voices-OPR:	4
**kern	**kern	**kern	**kern
*staff4	*staff3	*staff2	*staff1
*Ivox	*Ivox	*Ivox	*Ivox
*I"Bassus	*I"Tenor	*I"Altus	*I"Superius
*I'B	*I'T	*I'A	*I'S
*>[A,B]	*>[A,B]	*>[A,B]	*>[A,B]
*>A	*>A	*>A	*>A
*clefF4	*clefGv2	*clefGv2	*clefG2
*k[]	*k[]	*k[]	*k[]
*M3/1	*M3/1	*M3/1	*M3/1
*met(O)	*met(O)	*met(O)	*met(O)
!!section: Agnus Dei I
!!!OMD: Agnus Dei I
=1-	=1-	=1-	=1-
0D	0.r	0d	0a
1E	.	2B\	1g
.	.	2c\	.
=2	=2	=2	=2
1.D	0.r	1d	1.f
.	.	2D/	.
2C/	.	2E/	2e/
1BB-	.	2F/	1d
.	.	2G/	.
=3	=3	=3	=3
1AA	0.r	2A/	2c/
.	.	1c	1e
2C/	.	.	.
2D\	.	4B\	4d/
.	.	4A/	4c/
1E	.	1G#i	1B
=4	=4	=4	=4
2r	0.r	1A	1A
1AA	.	.	.
.	.	1c	2r
2AA/	.	.	2e/
2D\	.	2d\	2f/
2C/	.	2e\	2g/
=5	=5	=5	=5
2F\	0.r	2A/	2a/
1G	.	1d	2.b\
.	.	.	4a/
2A\	.	2c\	2.a/
1E	.	1B	.
.	.	.	4g#i/
.	.	.	4g#i/
.	.	.	4f#i/
=6	=6	=6	=6
0AA	0.c	0A	1.a
.	.	.	4g/
.	.	.	4f/
1C	.	1G	1e
=7	=7	=7	=7
1D	1A	2.F/	2d/
.	.	.	1f
.	.	4G/	.
1C	0c	2A/	.
.	.	2.A/	4e/
.	.	.	4d/
2r	.	.	1e
.	.	4G/	.
2AA/	.	2A/	.
=8	=8	=8	=8
2BB/	0d	2.D/	1d
2C/	.	.	.
.	.	4E/	.
1D	.	4F/	2r
.	.	4G/	.
.	.	2A/	2d/
2AA/	1r	2c\	2e/
2D\	.	2d\	2f/
=9	=9	=9	=9
2C/	1c	1e	2g/
2AA/	.	.	2.a/
2r	1A	2c\	.
.	.	.	4g/
2D\	.	2d\	2f/
2C/	1r	2e\	2e/
2D\	.	[2d\	2f/
=10	=10	=10	=10
1GG	1B-	2d\]	2.g/
.	.	1G	.
.	.	.	4f/
1C	0G	.	2e/
.	.	2E/	2c/
1BB	.	2.D/	2d/
.	.	.	4c/
.	.	4C/	4B/
=11	=11	=11	=11
2AA/	1A	1E	2c/
1C	.	.	2.e/
.	2G/	1r	.
.	.	.	4d/
2D\	2F/	.	2.d/
1AA	1E	1A	.
.	.	.	8c#i/L
.	.	.	8B/J
.	.	.	2c#i/
=12	=12	=12	=12
2r	1D	2B\	1d
1D	.	2A/	.
.	0A	1d	2.f/
2D\	.	.	.
.	.	.	4g/
2.F\	.	2c\	1a
.	.	2d\	.
8E\L	.	.	.
8D\J	.	.	.
=13	=13	=13	=13
1C	2r	1e	2.g/
.	2c\	.	.
.	.	.	8f/L
.	.	.	8e/J
1D	2A/	2r	2f/
.	2r	1A	2d/
2AA/	2c\	.	4r
.	.	.	4e/
2r	2A/	[2F/	4f/
.	.	.	4g/
=14	=14	=14	=14
2D\	2r	2F/]	2a/
2GG/	1d	4G/	2.b\
.	.	4A/	.
2G\	.	2B\	.
.	.	.	4a/
2A\	2c\	4c\	2a/
.	.	4d\	.
1E	1B	1e	2.g#/
.	.	.	4f#i/
=15	=15	=15	=15
0AA	[0.A	1e	1a
.	.	1c	2r
.	.	.	2a/
1r	.	2A/	2.a/
.	.	[2c\	.
.	.	.	8g/L
.	.	.	8f/J
=16	=16	=16	=16
1AA	0A]	4c\]	1e
.	.	4B\	.
.	.	2c\	.
0D	.	2d\	1d
.	.	4c\	.
.	.	4B\	.
.	1F	2A/	1f
.	.	2B\	.
=17	=17	=17	=17
1C	2G/	1c	1e
.	2A/	.	.
0D	0F	1.A	2d/
.	.	.	1d
.	.	2B\	4c/
.	.	.	4d/
=18	=18	=18	=18
0AA	1E	1A	0e
.	0A	1c	.
[1D	.	1d	1f
=19	=19	=19	=19
1D]	0d	1A	1f
1GG	.	1B-	1g
1AA	1c	1A	2f/
.	.	.	2e/
=20	=20	=20	=20
1C	0.r	2G/	1e
.	.	2.A/	.
2D\	.	.	1r
.	.	4B\	.
2E\	.	2c\	.
2.F\	.	2d\	1r
.	.	2r	.
8E\L	.	.	.
8D\J	.	.	.
=21	=21	=21	=21
2C/	0.r	2e\	0.r
2D\	.	2.f\	.
2r	.	.	.
.	.	8e\L	.
.	.	8d\J	.
2E\	.	2c\	.
2D\	.	2d\	.
2E\	.	2G/	.
=22	=22	=22	=22
2F\	0.r	2A/	0.r
2D\	.	2.B\	.
2E\	.	.	.
.	.	4A/	.
2C/	.	1A	.
1BB	.	.	.
.	.	2G#i/	.
=23	=23	=23	=23
2AA/	0.r	2A/	0.r
2.D\	.	2B\	.
.	.	4A/	.
4C/	.	4r	.
2D\	.	2.d\	.
1E	.	.	.
.	.	4B\	.
.	.	4.c\	.
.	.	8B\	.
=24	=24	=24	=24
2D\	2r	4d\	0.r
.	.	2f\	.
2C/	2c\	.	.
.	.	4e\	.
2D\	2A/	2d\	.
2AA/	2r	4c\	.
.	.	2A/	.
4r	2c\	.	.
4C/	.	4G/	.
4D\	2A/	4F/	.
4AA/	.	4A/	.
=25	=25	=25	=25
2BB/	2r	4G/	2r
.	.	4F/	.
2AA/	2c\	2A/	2e/
2D\	2A/	2r	2f/
2C/	2r	2c\	2g/
1F	2c\	2A/	1a
.	2A/	2c\	.
=26	=26	=26	=26
1BB-	2r	1d	2d/
.	2B-i\	.	2f/
2.C/	2G/	2c\	2e/
.	2r	2e\	2.g/
4BB-i/	.	.	.
2GG/	2B-\	2d\	.
.	.	.	4f/
[2C/	2G/	[2c\	4e/
.	.	.	4d/
=27	=27	=27	=27
2C/]	2r	2c\]	2e/
1D	2F/	2.A/	2d/
.	2D/	.	2r
.	.	4B\	.
2AA/	2r	2c\	1a
2D\	2F/	4.d\	.
.	.	8c\	.
2F\	2D/	2A/	2f/
=28	=28	=28	=28
1E	2r	2B\	2g/
.	2G/	2c\	2e/
2D\	2A/	2d\	4f/
.	.	.	4g/
2AA/	2c\	1e	2.a/
1E	1B	.	.
.	.	.	4g#i/
.	.	2e\	4g#i/
.	.	.	4f#i/
=29	=29	=29	=29
2.AA/	0A	1c	1a
4BB/	.	.	.
2C/	.	1r	2e/
2.D\	.	.	2.f/
.	2r	1A	.
4C/	.	.	4e/
2AA/	2A/	.	2c/
=30	=30	=30	=30
2D\	2F/	2B\	2d/
2C/	2G/	1c	2.e/
2AA/	2A/	.	.
.	.	.	4d/
2D\	2F/	2B\	1d
1AA	1E	1A	.
.	.	.	2c#i/
=31	=31	=31	=31
2r	1D	1A	2d/
2D\	.	.	2f/
2C/	0G	1c	2e/
2D\	.	.	4d/
.	.	.	4c/
1E	.	2r	1B
.	.	2B\	.
=32	=32	=32	=32
2AA/	1.A	2c\	1A
1D	.	2.d\	.
.	.	.	2r
.	.	4c\	.
2D\	2d\	2A/	2a/
1E	2B\	2r	2g/
.	2c\	2G/	2e/
=33	=33	=33	=33
2D\	2d\	2A/	2f/
2C/	1e	2c\	1g
2E\	.	2B\	.
2F\	2c\	1A	1a
2D\	2d\	.	.
2GG/	2B\	[2d\	2g/
=34	=34	=34	=34
2D\	2A/	2d\]	2f/
2E\	2G/	2B\	1e
2C/	1c	2c\	.
2AA/	.	2.e\	1a
1E	1B	.	.
.	.	4c\	.
.	.	4d\	2g#i/
.	.	4e\	.
=35	=35	=35	=35
0.AAl	0.Al	0.cl	0.al
!!LO:LB:i:g=z
=36||	=36||	=36||	=36||
*>B	*>B	*>B	*>B
*clefF4	*clefGv2	*clefGv2	*clefG2
*k[]	*k[]	*k[]	*k[]
*M2/1	*M2/1	*M2/1	*M2/1
*met(C|)	*met(C|)	*met(C|)	*met(C|)
!!section: Agnus Dei II
!!!OMD: Agnus Dei II
0r	0r	1.A	0r
.	.	4G/	.
.	.	4F/	.
=37	=37	=37	=37
0r	0r	1G	1.e
.	.	1A	.
.	.	.	4d/
.	.	.	4c/
=38	=38	=38	=38
0r	0r	1B	1d
.	.	2c\	1e
.	.	[2A/	.
=39	=39	=39	=39
0r	0r	2A/]	1f
.	.	4G/	.
.	.	4F/	.
.	.	1E	2g/
.	.	.	[2e/
=40	=40	=40	=40
0r	0r	1r	2e/]
.	.	.	4d/
.	.	.	4c/
.	.	1E	1B
=41	=41	=41	=41
0r	0r	2D/	1r
.	.	1d	.
.	.	.	1B
.	.	4c\	.
.	.	4B\	.
=42	=42	=42	=42
0r	0r	1c	2A/
.	.	.	1a
.	.	1d	.
.	.	.	4g/
.	.	.	4f/
=43	=43	=43	=43
0r	0r	1e	2.g/
.	.	.	4a/
.	.	2.E/	2b\
.	.	.	2e/
.	.	4F/	.
=44	=44	=44	=44
0r	0r	2G/	2r
.	.	1A	2e/
.	.	.	2f/
.	.	2B\	2g/
=45	=45	=45	=45
0r	0r	2c\	1a
.	.	2d\	.
.	.	1B	2d/
.	.	.	2g/
=46	=46	=46	=46
0r	0r	1A	2f/
.	.	.	2.e/
.	.	2.G/	.
.	.	.	4d/
.	.	.	[2d/
.	.	4A/	.
=47	=47	=47	=47
0r	0r	2B-\	2d/]
.	.	2.A/	2c/
.	.	.	2B/
.	.	4G/	.
.	.	[2G/	2G/
=48	=48	=48	=48
0r	0r	2G/]	1A
.	.	2F/	.
.	.	2G/	2G/
.	.	2A/	[2c/
=49	=49	=49	=49
0r	0r	1F	2c/]
.	.	.	2d/
.	.	1E	1e
=50	=50	=50	=50
0r	0r	1r	1d
.	.	[1E	1c
=51	=51	=51	=51
0r	0r	2E/]	0B
.	.	2F/	.
.	.	1G	.
=52	=52	=52	=52
0r	0r	1.A	1A
.	.	.	1r
.	.	4G/	.
.	.	4F/	.
=53	=53	=53	=53
0r	0r	1G	1.e
.	.	1A	.
.	.	.	2f/
=54	=54	=54	=54
0r	0r	1r	1g
.	.	1c	[1a
=55	=55	=55	=55
0r	0r	1d	2a/]
.	.	.	4g/
.	.	.	4f/
.	.	1B	1g
=56	=56	=56	=56
0r	0r	1A	2f/
.	.	.	1e
.	.	2.c\	.
.	.	.	[2A/
.	.	4d\	.
=57	=57	=57	=57
0r	0r	2e\	2A/]
.	.	1f	1d
.	.	4e\	4c/
.	.	4d\	4B/
=58	=58	=58	=58
0r	0r	1e	1c
.	.	1d	2d/
.	.	.	2f/
=59	=59	=59	=59
0r	0r	2.G/	2e/
.	.	.	2.g/
.	.	4A/	.
.	.	2B\	.
.	.	.	4f/
.	.	[2c\	4e/
.	.	.	4d/
=60	=60	=60	=60
0r	0r	2c\]	2e/
.	.	4B\	1a
.	.	4A/	.
.	.	1B	.
.	.	.	2g#i/
=61	=61	=61	=61
0r	0r	0A	1a
.	.	.	1r
=62	=62	=62	=62
0r	0r	2r	1A
.	.	1F	.
.	.	.	1d
.	.	2G/	.
=63	=63	=63	=63
0r	0r	1.A	2c/
.	.	.	1f
.	.	2G/	[2e/
=64	=64	=64	=64
0r	0r	2A/	2e/]
.	.	2D/	1a
.	.	2F/	.
.	.	2G/	2g/
=65	=65	=65	=65
0r	0r	2A/	2f/
.	.	4G/	4e/
.	.	4F/	4d/
.	.	1E	2.c#i/
.	.	.	4B/
=66	=66	=66	=66
0r	0r	0D	1d
.	.	.	[1f
=67	=67	=67	=67
0r	0r	0A	2f/]
.	.	.	4e/
.	.	.	4d/
.	.	.	2e/
.	.	.	[2f/
=68	=68	=68	=68
0r	0r	1G	4f/]
.	.	.	4e/
.	.	.	2e/
.	.	1F	2.d/
.	.	.	4c/
=69	=69	=69	=69
0r	0r	2E/	1e
.	.	2.A/	.
.	.	.	2r
.	.	4B\	.
.	.	2c\	2A/
=70	=70	=70	=70
0r	0r	2.d\	1B
.	.	4e\	.
.	.	2f\	2A/
.	.	[2e\	[2c/
=71	=71	=71	=71
0r	0r	4e\]	4c/]
.	.	4d\	4B/
.	.	2c\	2A/
.	.	1B	2.G#i/
.	.	.	4F#i/
=72	=72	=72	=72
0r	0r	3%4AV	3%4AV
.	.	3%2GZ	[3%2eZ
=73	=73	=73	=73
0r	0r	3%2AV	3%2e]V
.	.	3%2D	3%2f
.	.	3%2EZ	3%2gZ
=74	=74	=74	=74
0r	0r	3%2FV	3%2aV
.	.	3%2G	3%2d
.	.	[3%2AZ	3%2fZ
=75	=75	=75	=75
0r	0r	3%2A]V	3%4eV
.	.	3%4GZ	.
.	.	.	3%2dZ
=76	=76	=76	=76
0r	0r	3%4dV	3%2dV
.	.	.	3%4aZ
.	.	3%2fZ	.
=77	=77	=77	=77
0r	0r	3%2eV	3%2gV
.	.	3%4dZ	3%2f
.	.	.	[3%2b-Z
=78	=78	=78	=78
0r	0r	3%2dV	3%2b-]V
.	.	3%2c	3%2.a
.	.	3%2dZ	.
.	.	.	3g/Z
=79	=79	=79	=79
0r	0r	3%2AV	3%2fV
.	.	3%4B-iZ	3%2.g
.	.	.	3f/Z
=80	=80	=80	=80
0r	0r	0Al	0al
!!LO:TX:i:Y=40:rj:t=Agnus III ut supra
=||	=||	=||	=||
*-	*-	*-	*-
!!!RDF**kern: l=long note in original notation
!!!RDF**kern: i=editorial accidental
!!!RDF**kern: V=start of tuplet marker
!!!RDF**kern: Z=end of tuplet marker
!!!ENC:	Chris Gage 01-22-2014
!!!END:	2015/03/05/
!!!EED:	Jesse Rodin
!!!EEV:	2015/03/09/
!!!ONB:	Translated from MusicXML and edited on 2015/03/09/ by Craig Sapp
!!muse2ps: T^@{OPR}^u^@{ONM}{. }@{OTL}^C^@{COM}^i2I150v85,85,85,150Q16
